X:1
T:Title
L:1/8
M:4/4
K:Bb
V:1 treble nm="Grand Piano"
V:1
 z4 z2 z[Q:1/4=100] D | E2 D2- D G2 ^F | BAG^F G3 D | E2 D2- D G2 ^F | BAG^F G3 c | c2 c2- c A2 A | %6
 BA B2- B G2 G | A2 A2- A A2 c | BAG^F GAB=B | c2 c2- c A2 A | BA B2- B G2 G | A2 A2- A A2 c | %12
 BAG^F G2 z d | cBAG ^FEDC | E2 DC D3 d | cBAG ^FEDC | E2 DC D3 c | c2 c2- c c2 c | ed e2- e B2 B | %19
 B2 B2- B B2 B | dc d2- d A2 c | c2 c2- c A2 A | BA B2- B G2 A | A2 A2- A A2 c | BAG^F G4 |] %25

